UnityPomodoro/Assets/AdrianMiasik/SVGs/icon-light-github.svg

<svg clip-rule="evenodd" fill-rule="evenodd" stroke-linejoin="round" stroke-miterlimit="2" viewBox="0 0 64 64" xmlns="http://www.w3.org/2000/svg" xmlns:xlink="http://www.w3.org/1999/xlink"><clipPath id="a"><path clip-rule="evenodd" d="m0 0h64v64h-64z"/></clipPath><g><path d="m0 0h64v64h-64z" fill="none"/><g clip-path="url(#a)"><path d="m0-31.904c-8.995 0-16.288 7.293-16.288 16.29 0 7.197 4.667 13.302 11.14 15.457.815.149 1.112-.354 1.112-.786 0-.386-.014-1.411-.022-2.77-4.531.984-5.487-2.184-5.487-2.184-.741-1.881-1.809-2.382-1.809-2.382-1.479-1.011.112-.991.112-.991 1.635.116 2.495 1.679 2.495 1.679 1.453 2.489 3.813 1.77 4.741 1.354.148-1.053.568-1.771 1.034-2.178-3.617-.411-7.42-1.809-7.42-8.051 0-1.778.635-3.232 1.677-4.371-.168-.412-.727-2.068.159-4.311 0 0 1.368-.438 4.48 1.67 1.299-.361 2.693-.542 4.078-.548 1.383.006 2.777.187 4.078.548 3.11-2.108 4.475-1.67 4.475-1.67.889 2.243.33 3.899.162 4.311 1.044 1.139 1.675 2.593 1.675 4.371 0 6.258-3.809 7.635-7.438 8.038.585.503 1.106 1.497 1.106 3.017 0 2.177-.02 3.934-.02 4.468 0 .436.293.943 1.12.784 6.468-2.159 11.131-8.26 11.131-15.455 0-8.997-7.294-16.29-16.291-16.29" fill="#181717" transform="matrix(1.96446 0 0 1.96446 31.9971 63.4638)"/></g></g></svg>

<?xml version="1.0" encoding="UTF-8" standalone="no"?>
<!DOCTYPE svg PUBLIC "-//W3C//DTD SVG 1.1//EN" "http://www.w3.org/Graphics/SVG/1.1/DTD/svg11.dtd">
<svg width="100%" height="100%" viewBox="0 0 64 64" version="1.1" xmlns="http://www.w3.org/2000/svg" xmlns:xlink="http://www.w3.org/1999/xlink" xml:space="preserve" xmlns:serif="http://www.serif.com/" style="fill-rule:evenodd;clip-rule:evenodd;stroke-linejoin:round;stroke-miterlimit:2;">
    <g transform="matrix(1,0,0,1,-84,0)">
        <g id="Light" transform="matrix(1,0,0,1,84,0)">
            <rect x="0" y="0" width="64" height="64" style="fill:none;"/>
            <clipPath id="_clip1">
                <rect x="0" y="0" width="64" height="64"/>
            </clipPath>
            <g clip-path="url(#_clip1)">
                <g transform="matrix(1.96446,0,0,1.96446,31.9971,63.4638)">
                    <g>
                        <g id="Right">
                            <path d="M0,-31.904C-8.995,-31.904 -16.288,-24.611 -16.288,-15.614C-16.288,-8.417 -11.621,-2.312 -5.148,-0.157C-4.333,-0.008 -4.036,-0.511 -4.036,-0.943C-4.036,-1.329 -4.05,-2.354 -4.058,-3.713C-8.589,-2.729 -9.545,-5.897 -9.545,-5.897C-10.286,-7.778 -11.354,-8.279 -11.354,-8.279C-12.833,-9.29 -11.242,-9.27 -11.242,-9.27C-9.607,-9.154 -8.747,-7.591 -8.747,-7.591C-7.294,-5.102 -4.934,-5.821 -4.006,-6.237C-3.858,-7.29 -3.438,-8.008 -2.972,-8.415C-6.589,-8.826 -10.392,-10.224 -10.392,-16.466C-10.392,-18.244 -9.757,-19.698 -8.715,-20.837C-8.883,-21.249 -9.442,-22.905 -8.556,-25.148C-8.556,-25.148 -7.188,-25.586 -4.076,-23.478C-2.777,-23.839 -1.383,-24.02 0.002,-24.026C1.385,-24.02 2.779,-23.839 4.08,-23.478C7.19,-25.586 8.555,-25.148 8.555,-25.148C9.444,-22.905 8.885,-21.249 8.717,-20.837C9.761,-19.698 10.392,-18.244 10.392,-16.466C10.392,-10.208 6.583,-8.831 2.954,-8.428C3.539,-7.925 4.06,-6.931 4.06,-5.411C4.06,-3.234 4.04,-1.477 4.04,-0.943C4.04,-0.507 4.333,0 5.16,-0.159C11.628,-2.318 16.291,-8.419 16.291,-15.614C16.291,-24.611 8.997,-31.904 0,-31.904" style="fill:rgb(24,23,23);"/>
                        </g>
                    </g>
                </g>
            </g>
        </g>
    </g>
</svg>
